!!! OTL: Berkowitz403
!!! Chapter: 1
!!! Section: III
!!! Page: 100
!!! Mode: 
!!! Encoder: DJB
**kern
*staff1
*I"Piano
=1-
*clefF4
*k[f#c#g#d#a#]
*B:
*met(c)
*M4/4
4r
4r
4r
4FF#/
=2
8BB/L
8AA#/
8BB/
8C#/J
8D#\L
8C#\
8D#\
8E\J
=3
8F#\L
8B\
8G#\
8B\J
8F#\L
8B\
8G#\
8B\J
=4
8F#\L
8E\
8D#\
8C#\J
8D#/L
8C#/
8BB/
8AA#/J
=5
4BB/
4D#\
4F#\
[4F##\
=6
8F##\L]
8G#\
8A#\
8B\J
4F#\
[4E\
=7
!!linebreak:original
8E\L]
8F#\
8G#\
8A#\J
4D#\
[4C#/
=8
8C#\L]
8D#\
8E\
8F#\J
8G#\L
8E\
8F#\
8D#\J
=9
8E/L
8D#/
8C#/
8BB/J
4F#\
[4F##\
=10
8F##\L]
8G#\
8A#\
8B\J
4F#\
[4E\
=11
8E\L]
8F#\
8G#\
8A#\J
4D#\
[4C#/
=12
8C#\L]
8D#\
8E\
8F#\J
8G#\L
8A#\
8B\
8c#\J
=13
!!linebreak:original
8d#\L
8B\
8c#\
8A#\J
4B\
4r
==
*-
